X: 2621
T:All's Well. HSJJ.068
M:2/4
L:1/8
Q:200
S:HSJ Jackson,Wyresdale,Lancs.1823
R:Cotillion
O:England
A:Lancashire
H:1823
Z:Chris Partington.
K:D
G|(F/G/A/F/) DE|FGAB|cdef|ge eG|F/G/A/F/ DE|FGAd|BGEA|FDD:|!
|:f|gfed|cedB|AFdF|GEEF|GABc|dfdA|BdEG|FDD:|]
